X: 21131
M: 6/8
L: 1/8
K: D
V: 1 name="2"
[|\
[|\
fad fad | fga agf | egc egc | efg gfe |\
fga gab | afd ecA | fed cAG | Ad^c "^D.C."d2 |]


